logos/designernews.svg

<?xml version="1.0" encoding="UTF-8" standalone="no"?>
<svg width="256px" height="256px" viewBox="0 0 256 256" version="1.1" xmlns="http://www.w3.org/2000/svg" xmlns:xlink="http://www.w3.org/1999/xlink" preserveAspectRatio="xMidYMid">
    <defs>
        <circle id="path-1" cx="128" cy="128" r="128"></circle>
    </defs>
	<g>
		<g>
			<mask id="mask-2" fill="white">
				<use xlink:href="#path-1"></use>
			</mask>
			<use fill="#B3BBC6" xlink:href="#path-1"></use>
			<path d="M38.714754,176.727132 L146.054592,256.57084 L410.061375,273.175 L207.754106,85.9239334 L207.754109,128.612129 L188.879536,115.09473 L153.75844,85.9239334 L132.850131,120.007331 L103.455284,95.4675808 L51.7688072,92.1887808 L38.714754,176.727132 L38.714754,176.727132 Z" fill="#666C76" mask="url(#mask-2)"></path>
		</g>
		<path d="M118.837414,131.158952 C118.837414,104.027618 102.16157,85.6312499 70.3980563,85.6312499 L39.0315871,85.6312499 L39.0315871,176.951351 L71.0597965,176.951351 C101.896874,176.951351 118.837414,158.290287 118.837414,131.158952 L118.837414,131.158952 L118.837414,131.158952 Z M96.0735635,131.2913 C96.0735635,150.878801 86.0151174,159.349071 69.868665,159.349071 L61.6630904,159.349071 L61.6630904,103.23353 L69.868665,103.23353 C85.3533773,103.23353 96.0735635,112.100845 96.0735635,131.2913 L96.0735635,131.2913 L96.0735635,131.2913 Z M208.966384,176.951351 L208.966384,85.6312499 L187.923056,85.6312499 L187.923056,136.717567 L154.306671,85.6312499 L132.336908,85.6312499 L132.336908,176.951351 L153.380236,176.951351 L153.380236,122.291638 L189.378884,176.951351 L208.966384,176.951351 L208.966384,176.951351 Z" fill="#FFFFFF"></path>
	</g>
</svg>

<svg width="256" height="256" xmlns="http://www.w3.org/2000/svg" xmlns:xlink="http://www.w3.org/1999/xlink" preserveAspectRatio="xMidYMid">
	<defs>
		<circle id="a" cx="128" cy="128" r="128"/>
	</defs>
	<mask id="b" fill="#fff">
		<use xlink:href="#a"/>
	</mask>
	<use fill="#B3BBC6" xlink:href="#a"/>
	<path d="m38.715 176.727 107.34 79.844 264.006 16.604L207.754 85.924v42.688l-18.874-13.517-35.122-29.171-20.908 34.083-29.395-24.54L51.77 92.19l-13.054 84.538Z" fill="#666C76" mask="url(#b)"/>
	<path d="M118.837 131.159c0-27.131-16.675-45.528-48.439-45.528H39.032v91.32H71.06c30.837 0 47.777-18.66 47.777-45.792Zm-22.763.132c0 19.588-10.059 28.058-26.205 28.058h-8.206v-56.115h8.206c15.484 0 26.205 8.867 26.205 28.057Zm112.892 45.66v-91.32h-21.043v51.087L154.307 85.63h-21.97v91.32h21.043v-54.66l35.999 54.66h19.587Z" fill="#FFF"/>
</svg>
